X:1
T:Cinto il sole
T:Cinto il sole
T:Gio.Girolamo Kapsperger
C:Gio.Girolamo Kapsperger
%%score [ 1 2 ] { ( 3 5 ) | 4 }
L:1/8
Q:1/4=120
M:3/4
K:F
V:1 treble nm="Soprano" snm="S"
V:2 bass nm="Bass" snm="B"
V:3 treble nm="BC" snm="BC"
V:5 treble 
V:4 bass 
V:1
 A4 B2 | c3 B c2 | d2 c2 A2 | B2 c2 d2 | ^c2 =B2 c2 | d6 | A2 B2 c2 | d4 c2 | =B2 A2 B2 | c2 B4 | %10
w: Cin- to'il|so- le di|rai _ dal|mar _ un|gior _ no'us-|ci,|ne piu su-|per- bo|ma- * *|i su'l|
w: Vi- de'il|fa- sto ter-|re- * no|ve- stir per-|l'e _ ru-|bin|e vie del|sol non|me- * *|no mo-|
w: |d'i- ra co-|cen- * ti|dal ci- glio|ba- * le-|no,-|e mil- le|fio- ri|spen- * *|ti su'l|
w: Lam- pi||||||||||
w: Su la|sie- pe la|ro- * s'ar-|den- * t'a|quel _ ar-|dor,|ri- ser- b'an|cor fo-|co- * *|sa de|
 A3 G/F/ E2 | F3 G A2 | F2 F3 E | F6 :: z2 AB cd | e2 e2 f2 | d2 FG A=B | c2 =B2 d2 | ^c6 | %19
w: cie- * * *||lo n'ap- pa-|ri.|Sde- * * *|gno- so'il te-|sor Tron- * * *|co del crin|d'or,|
w: strar _ _ _|do- * *|ra- to il|crin.|Del _ _ _|van- to mor-|tal e _ _ _|_ con le|fiam-|
w: pra- * * *|to _ _|sa- et- *|to|E- * * *|san- gue quel|di, il _ _ _|gi- glio lan-|gui,|
w: |||||||||
w: la _ _ _|_ _ _|vam- pa'il ros-|sor.|E'l _ _ _|so- le dal|mar an- * * *|ch'og- gi n'ap-|par,|
 A2 A2 G2 | F3 G A2 | =B2 A2 B2 | c2 A2 G2 | F3 G A2 | F4 FE | F6 |] %26
w: scor- to ch'in|ter- ra splen-|de'a- glie- gua|Pom- * *||* pa mor-|tal.|
w: me che d'i-|ra _ _|u- ni ac-|ce- * *||* se il|ciel|
w: la vi- o-|let- ta nel|suo pal- lor|mo- * *||* stro ti-|mor.|
w: |||||||
w: in se- gno|di- ra, tut-|to ba- le'il-|vol- * *||* to, e'l|sen.|
V:2
 F,4 G,2 | A,3 G, A,2 | B,2 F,2 F,2 | G,2 A,2 B,2 | A,2 G,2 A,2 | D,6 | F,2 F,2 E,2 | D,2 E,2 F,2 | %8
w: Cin- to'il|so- le di-|rai _ dal|mar _ un|gior- * no'us-|ci,|ne piu su-|per- * bo|
w: Vi- de'il|fa- sto ter-|re- * no|ve- stir per-|l'e _ ru-|bin|e vie del|sol _ non|
w: ||||||||
w: Lam- pi|d'i- ra co-|cen- * ti|dal ci- glio|ba- * le-|no,|e mil- le|fio- * ri|
w: Lam- pi||||||||
w: Su la|sie- pe la|ro- * s'ar-|den- * t'a|quel _ ar-|dor,|ri- ser- b'an-|cor _ fo-|
 G,2 F,2 G,2 | C,2 D,2 E,2 | F,3 E,/D,/ C,2 | D,3 C,/B,,/ A,,2 | B,,2 C,3 C, | F,,6 :: %14
w: ma- * *|i su'l _|cie- * * *||lo n'ap- pa-|ri.|
w: me- * *|no mo- *|strar _ _ _|do- * * *|ra- to- il|crin.|
w: ||||||
w: spen- * *|ti su'l *|pra- * * *|to _ _ _|sa- et- *|to.|
w: ||||||
w: co- * *|sa de _|la _ _ _|_ _ _ _|vam- pa'il ros-|sor.|
 z2 F,G, A,B, | C2 C2 A,2 | B,2 D,E, F,G, | A,2 G,2 D,2 | A,6 | F,2 F,2 E,2 | D,3 E, F,2 | %21
w: Sde- * * *|gno- so'il te-|sor' Tron- * * *|co del crin|d'or,|scor- to ch'in|ter- ra splen-|
w: |||||||
w: Del _ _ _|van- to mor-|tal e _ _ _|_ con le|fiam-|me che d'i-|ra _ _|
w: E- * * *|san- gue quel|di, il _ _ _|gi- glio lan-|gui,|la vi- o-|let- ta nel|
w: |||||||
w: E'l _ _ _|so- le dal|mar an- * * *|ch'og- gi n'ap-|par,|in se- gno|di- ra, tut-|
 G,2 F,2 G,2 | C,2 F,2 E,2 | D,3 C,/B,,/ A,,2 | B,,2 C,2 C,C, | F,,6 |] %26
w: de'a- glie- gual|Pom- * *||* * pa mor-|tal.|
w: |||||
w: u- ni ac-|ce- * *||* * se il|ciel.|
w: suo pal- lor|mo- * *||* * stro ti-|mor.|
w: |||||
w: to ba- le'il|vol- * *||* * to, e'l|sen.|
V:3
 [FAc]4 [DB]2 | [EAc]6 | [DFB]2 [FA]2 [CA]2 | [DB]2 [Ac]2 [Fd]2 | [EA^c]2 [=Bd]2 [Ac]2 | [^FAd]6 | %6
 [Ac]4 [Gc]2 | [FA]2 [Gd]2 [Ac]2 | [DG=B]2 [DA]2 [GB]2 | [Ec]2 [Fd]2 [Gc]2 | [FAc]4 [EG]2 | %11
 [FA]4 [Ec]2 | [FB]2 c4 | [FAc]6 :: x6 | [EGc]4 [Fc]2 | [DFB]2 [DFA]4 | [Ec]2 [G=B]2 [^FAd]2 | %18
 [EA^c]6 | [CA]4 G2 | [FA]4 [Ac]2 | [D=B]2 [FA]2 [GB]2 | [Ge]2 [Ac]2 [Gc]2 | [Fd]4 [CA]2 | B2 c4 | %25
 [FAc]6 |] %26
V:4
 F,4 G,2 | A,3 G, A,2 | B,2 F,2 F,2 | G,2 A,2 B,2 | A,2 G,2 A,2 | D,6 | F,4 E,2 | D,2 E,2 F,2 | %8
 G,2 F,2 G,2 | C,2 D,2 E,2 | F,3 E,/D,/ C,2 | D,3 C,/B,,/ A,,2 | B,,2 [C,G,]4 | F,,6 :: %14
 z2 F,G, A,B, | C4 A,2 | B,2 D,E, F,G, | A,2 G,2 D,2 | A,,6 | F,4 E,2 | D,3 E, F,2 | G,2 F,2 G,2 | %22
 C,2 F,2 E,2 | D,3 C,/B,,/ A,,2 | B,,2 [C,G,]4 | [F,,F,]6 |] %26
V:5
 x6 | x6 | x6 | x6 | x6 | x6 | x6 | x6 | x6 | x6 | x6 | x6 | D2 F2 E2 | x6 :: [FAc]6 | x6 | x6 | %17
 x6 | x6 | x6 | x6 | x6 | x6 | x6 | D2 F2 E2 | x6 |] %26

